!!!!SEGMENT: pl-wtm--r-66-n--002_noskowski-zygmunt--piesni-ludowe-op-51-czarna-kura.krn
!!!cenid: 18xx:2280
!!!COM: Noskowski, Zygmunt
!!!COM-rismid: pe106604
!!!CDT: 1846/05/02-1909/07/23
!!!CNT: Polish
!!!GTL: Pieśni ludowe op. 51
!!!OTL: Czarna kura
!!!PDT:
!!!AGN: Secular; Song
!!!SMS-siglum: PL-Wtm
!!!SMS-shelfmark: R 66/N
!!!SMS-shelfwork: 002 G
!!!SMS-variant:
!!!SMS-altvar:
!!!NIFC-rismid: 1001096661
!!!OMD: Allegretto scherzando
!!!system-decoration: {(s1,s2)}
!!!key:
**kern	**dynam	**kern	**text	**text	**text	**text	**dynam
*part2	*part2	*part1	*part1	*part1	*part1	*part1	*part1
*staff2	*	*staff1	*staff1	*staff1	*staff1	*staff1	*
*Ibass	*	*Itenor	*	*	*	*	*
*I"Basy	*	*I"Tenory	*	*	*	*	*
*clefF4	*	*clefGv2	*	*	*	*	*
*k[b-e-a-d-]	*	*k[b-e-a-d-]	*	*	*	*	*
*f:	*	*f:	*	*	*	*	*
*M2/4	*	*M2/4	*	*	*	*	*
*>[A,A,A,A,B]	*	*>[A,A,A,A,B]	*	*	*	*	*
=1	=1	=1	=1	=1	=1	=1	=1
*^	*	*	*	*	*	*	*
*	*	*	*^	*	*	*	*	*
*	*	*	*	*	*	*	*	*	*^
*	*	*	*	*	*	*	*	*	*	*^
*	*	*	*	*	*	*	*	*	*	*	*^
*	*	*	*	*	*	*	*	*	*	*	*	*
*>A	*>A	*	*>A	*>A	*	*	*	*	*	*	*	*
!!LO:TX:t=P:problem:all\left,middle or right:global
!	!	!	!LO:TX:t=P:problem:w źródle brak przenośnika oktawowego	!	!	!	!	!	!	!	!	!
!	!	!	!LO:TX:a:t=P:w źródle oddzielna dynamika dla każdej zwrotki [w pierwszych trzech taktach]	!	!	!	!	!	!	!	!	!
!	!	!	!	!	!	!	!	!	!LO:DY:b:rj	!LO:DY:b:rj	!LO:DY:b:rj	!LO:DY:b:rj
!	!	!	!	!	!	!	!	!	!	!	!LO:HP:b	!LO:HP:b
[>2c/	[<2c\	.	[>2c/	[<2c\	1. Hej!	2. Hej!	3. Hej!	4. Hej!	f	f	f >	p <
=2	=2	=2	=2	=2	=2	=2	=2	=2	=2	=2	=2	=2
2c/]	2c\]	.	2c/]	2c\]	.	.	.	.	.	.	]	[
=3	=3	=3	=3	=3	=3	=3	=3	=3	=3	=3	=3	=3
!	!	!	!	!	!	!	!	!	!	!	!LO:DY:b:rj	!LO:DY:b:rj
8G/	8En\	.	8c/	8B-\	Czar-	Da-	Za	Za-	.	.	p	f
8B-/	(>16G\LL	.	8en/	8c\	-na	-lej-	la-	-gwiz-	.	.	.	.
.	16F\JJ)	.	.	.	.	.	.	.	.	.	.	.
8G/	8E\	.	8c/	8B-\	ku-	-że	-sem	-dał	.	.	.	.
8B-/	8C\	.	8e/	8c\	-ra	ty	za	se	.	.	.	.
*	*	*	*	*	*	*	*	*	*	*	*v	*v
*	*	*	*	*	*	*	*	*	*	*v	*v
*	*	*	*	*	*	*	*	*	*v	*v
=4	=4	=4	=4	=4	=4	=4	=4	=4	=4
4A-/	4F\	.	4f/	4c\	pie-	Jan-	gó-	po-	.
(>8G/L	(<8C\L	.	(<8en/L	4c\	-je,	-ku,	-rą	-tem	.
8F/J)	8Dn\J)	.	8c/J)	.	.	.	.	.	.
=5	=5	=5	=5	=5	=5	=5	=5	=5	=5
8G/	8En\	.	8c/	8B-\	Ko-	W tym	Zszedł	I	.
8B-/	(>16G\LL	.	8en/	8c\	-wal-	ru-	się	po-	.
.	16F\JJ)	.	.	.	.	.	.	.	.
8G/	8E\	.	8c/	8B-\	-ka	-cia-	wia-	-le-	.
8B-/	8C\	.	8e/	8c\	się	-nym	-ter	-ciał	.
!!LO:LB:g=original
=6	=6	=6	=6	=6	=6	=6	=6	=6	=6
4A-/	4F\	.	4f/	4c\	śmie-	wian-	z chmu-	lo-	.
(>8G/L	(<8C\L	.	(>8en/L	(<8B-\L	-je,	-ku	-rą,	-tem,	.
8A-/J)	8F\J)	.	8c/J)	8A-\J)	.	.	.	.	.
=7	=7	=7	=7	=7	=7	=7	=7	=7	=7
8F/	8D-\	.	8B-/	8B-\	Ho,	Ho,	Za	Ho,	.
8F/	8BB-\	.	8d-/	8B-\	ho,	ho,	łby	ho,	.
4F^^>/	4AA-\	.	4c^^>/	4c\	ho,	ho,	się	ho,	.
=8	=8	=8	=8	=8	=8	=8	=8	=8	=8
8F/	8D-\	.	8B-/	8B-\	ha,	ha,	po-	ha,	.
8E-/	8E-\	.	8d-/	8G\	ha,	ha,	-rwa-	ha,	.
4E-^^>/	4AA-\	.	4c^^>/	4A-\	ha,	ha,	-li	ha,	.
=9	=9	=9	=9	=9	=9	=9	=9	=9	=9
8D-/	8BB-\	.	8B-/	8G\	Ko-	Co	Kto	Aż	.
8Dn/	8BBn\	.	8A-/	8F\	-wal-	ci	ko-	za	.
8En/	8C\	.	8G/	8En\	-czy-	Ma-	-go	ły-	.
8E/	8C\	.	8A-/	8E\	-ki	-ryś	prze-	-se	.
=10	=10	=10	=10	=10	=10	=10	=10	=10	=10
(>4F/	(<4F\	<	(>4F/	(<4F\	ku-	da-	-wa-	gó-	<
4G^^>/)	4E-X\)	[	4f^^>/)	4d-\)	-ją,	-ła,	-li	-ry,	[
=11	=11	=11	=11	=11	=11	=11	=11	=11	=11
8A-/	8AA-\	.	8e-/	8c\	Ho,	Ho,	Wia-	Ho,	.
8E-/	8BB-\	.	8d-/	8G\	ho,	ho,	-ter	ho,	.
4E-^^>/	4C\	.	4c^^>/	4A-\	ho,	ho,	się	ho	.
!!LO:PB:g=original
=12	=12	=12	=12	=12	=12	=12	=12	=12	=12
8F/	8D-\	.	8B-/	8B-\	ha,	ha,	o-	ha,	.
8En/	8C\	.	8d-/	8B-\	ha,	ha,	-bró-	ha,	.
4F^^>/	4FF\	.	4c^^>/	4A-\	ha,	ha,	-cił,	ha,	.
=13	=13	=13	=13	=13	=13	=13	=13	=13	=13
8D-/	8GG\	.	8B-/	8F\	Pan-	Dru-	Chmu-	Bić	.
8C/	8AA-\	.	8A-/	8F\	-ny	-gi	-rę	też	.
8D-/	8BB-\	.	8G/	8F\	wy-	o-	w mo-	dru-	.
8C/	8C\	.	8A-/	8En\	-ska-	-bie-	-rze	-gie	.
=14	=14	=14	=14	=14	=14	=14	=14	=14	=14
4C/	4FF\	.	4F/	4F\	-ku-	-ca-	rzu-	chmu-	.
8C/	8FF\	.	8F/	8F\	-ją.	-ła.	-cił.	-ry.	.
8r	8ryy	.	8r	8ryy	.	.	.	.	.
=15:|!	=15:|!	=15:|!	=15:|!	=15:|!	=15:|!	=15:|!	=15:|!	=15:|!	=15:|!
*>B	*>B	*	*>B	*>B	*	*	*	*	*
[>2A-/	[<2F\	ff	[>2f/	[<2c\	Hej!	.	.	.	ff
=16	=16	=16	=16	=16	=16	=16	=16	=16	=16
2A-/_>	2F\_<	.	2f/_>	2c\_<	.	.	.	.	.
=17	=17	=17	=17	=17	=17	=17	=17	=17	=17
8A-/]	8F\]	.	8f/]	8c\]	.	.	.	.	.
8r	8ryy	.	8r	8ryy	.	.	.	.	.
4r	4ryy	.	4r	4ryy	.	.	.	.	.
*v	*v	*	*	*	*	*	*	*	*
*	*	*v	*v	*	*	*	*	*
==	==	==	==	==	==	==	==
*-	*-	*-	*-	*-	*-	*-	*-
!!title: @{OTL};
!!!RDF**kern: > = above
!!!RDF**kern: < = below
!!!RDF**kern: | = vertical stroke
!!!RDF**kern: N = linked
!!!RDF**kern: i = editorial accidental
!!!EED: Wojciech Jakubiak-Danek
!!!EST: 2021-06-09
!!!URL-scan: http://repozytorium.nifc.pl/skany/pl-wtm-nut--r66n
!!!ONB-nifc: UWAGA: na podstawie partytur z folderu pl-wtm-r66n
!!!AIN: 1 bass 1 tenor
!!!ENC: Katarzyna Serwa
!!!END: 2021-06-01
